X:1
T:6
L:1/8
M:6/8
K:D
V:1 treble nm="Piano" snm="Pno."
V:1
 D2 F A2 B | !breath!A3 dcB | A2 B AGF | A3- !breath!A3 | D2 E F2 A | d2 e f2 !breath!e | ded AFA | %7
 d3- d3 | d2 d e2 d | c2 c A2 z | G2 G B2 B | F2 E A2 z | D2 E F2 G | A2 F E2 !breath!D | %14
 d2 c e2 A | d3- d3 |] %16

